packages/ffe-icons/icons/open/300/md/king_bed.svg

<svg xmlns="http://www.w3.org/2000/svg" height="24" viewBox="0 -960 960 960" width="24"><path d="M100.001-468.307q0-29.923 21.193-50.807 21.192-20.885 51.115-20.885h7.692V-647.69q0-29.923 21.193-51.115 21.192-21.192 51.115-21.192h455.382q29.923 0 51.115 21.192 21.193 21.192 21.193 51.115v107.691h7.692q29.923 0 51.115 21.193 21.193 21.192 21.193 51.115v123.69q0 18.385-12.808 31.192-12.807 12.808-31.192 12.808l-17.769 69.307q-1.615 4.846-5.461 7.77-3.846 2.923-8.692 2.923h-8.154q-4.846 0-8.692-2.923-3.846-2.924-5.461-7.77l-17.769-69.307H215.999l-17.769 69.307q-1.615 4.846-5.461 7.77-3.846 2.923-8.692 2.923h-8.154q-4.846 0-8.692-2.923-3.846-2.924-5.461-7.77l-17.769-69.307q-18.385 0-31.192-12.808-12.808-12.807-12.808-31.192v-124.306Zm409.998-71.692H720V-647.69q0-5.385-3.462-8.847-3.462-3.462-8.847-3.462H509.999v120Zm-269.999 0h210.001v-120H252.309q-5.385 0-8.847 3.462Q240-653.075 240-647.69v107.691ZM160-360h640v-107.691q0-5.385-3.462-8.847-3.462-3.462-8.847-3.462H172.309q-5.385 0-8.847 3.462-3.462 3.462-3.462 8.847V-360Zm640 0H160 800Z"/></svg>

<svg xmlns="http://www.w3.org/2000/svg" height="24" viewBox="0 -960 960 960" width="24"><path d="M100-468.31q0-29.92 21.19-50.8Q142.39-540 172.31-540H180v-107.69q0-29.92 21.19-51.11 21.2-21.2 51.12-21.2h455.38q29.92 0 51.12 21.2Q780-677.61 780-647.69V-540h7.69q29.92 0 51.12 21.19Q860-497.61 860-467.69V-344q0 18.38-12.81 31.19Q834.38-300 816-300l-17.77 69.31q-1.62 4.84-5.46 7.77-3.85 2.92-8.69 2.92h-8.16q-4.84 0-8.69-2.92-3.84-2.93-5.46-7.77L744-300H216l-17.77 69.31q-1.62 4.84-5.46 7.77-3.85 2.92-8.69 2.92h-8.16q-4.84 0-8.69-2.92-3.84-2.93-5.46-7.77L144-300q-18.38 0-31.19-12.81Q100-325.62 100-344v-124.31ZM510-540h210v-107.69q0-5.38-3.46-8.85-3.46-3.46-8.85-3.46H510v120Zm-270 0h210v-120H252.31q-5.39 0-8.85 3.46-3.46 3.47-3.46 8.85V-540Zm-80 180h640v-107.69q0-5.39-3.46-8.85t-8.85-3.46H172.31q-5.39 0-8.85 3.46t-3.46 8.85V-360Zm640 0H160h640Z"/></svg>
